X:1
C: H. J. Gauntlett
M: none
L:1/2
%%staves [(S A) (T B)]
K:G
V:S clef=treble
G2 | G G | G2 || F2 | G d | c B | A2 || A2 | ^c d | d2 || c2 | c B | B A | G2|]
V:A clef=treble
D2 | D D | D2 || D2 | D G | A G | F2 || F2 | E D | G2 || G2 | A G | G F | G2 |]
V:T clef=bass octave=-1
B2 | c d | c2 || c2 | d d | d d | d2 || A2 | G A | B2 || e2 | d d | d c | B2 |]
V:B clef=bass octave=-1
G2 | A B | A2 || A2 | B B | F G | D2 || D2 | E F | E2 || E2 | F G | D D | G2 |]
